X:430
T: Banks of Newfoundland
S: "Crossroads Dance" [Taylor/Mallinson]
Z: B.Black
R: jig
M: 6/8
L: 1/8
K: G
A|B2G AGE|GBd g3|ded BGA|BAA Adc|
B2G AGE|GBd g3|ded BGA|BGG G2 :|
B|d2g gfg|eaa aga|bge dBG|BAA ABc|
d2g gfg|eaa aga|bge dBA|BGF G2 :|
